X: 36614
T: Shan Van Vocht, The
R: reel
M: 4/4
K: Dmajor
(a2 g)|(f2 d) (e2 B)|(d2 B) .A2 .d|e3 e3|{^def}e3 (a2 g)|
(f2 d) (e2 B)|(d2 B) .A2 .c|d3 (d3{ef}|d3)||
(d3 e)|(f2 g) a2 a|(.b2 c' d'2) b|(a2 f) (fe)d|
{^d}e3 (a2 g)|(f2 d) (e2 B)|(d2 B) .A2 .d|e3 e3|
{^def}e3 (a2 g)|(f2 d) (e2 B)|(d2 B) .A2 .c|d3 (d3{ef}|d3)||

